X:819
T:Woodstock Park
C:Walsh, 1710
S:Colin Hume's website,  colinhume.com  - chords can also be printed below the stave.
Q:3/8=120
M:6/8
L:1/8
K:D
P:A
|: A | "D"dfd "A/C#"ege | "Bm"fac "/"d2c | "G"BAG "E7/G#"FED | "A"(CE)z "/"z2A |\
"Bm"DFB "A/C#"EGc | "D"FAd "Em"GBe | "A"cAd "A7"d2c | "D"d3- "/"d2 :|
P:B
f | "D"f3 "A/C#"edc | "Bm"dcB "F#7"^A2c | "Bm"B2f "Em"edc/B/ | "F#7"^A3 "/"F2d/e/ |\
"Bm"fdB "F#/A#"ec^A | "Bm"fdB "F#/A#"ec^A | "Bm"d>cB "F#7"FB^A | "Bm"B3- "/"B2"A"c |
"D"d3 "/"AGF | "Em"EFD "A"CEA, | "Bm"D>EF "/"F>ED | "A"A3- "/"A2A/G/ |\
"D"FAd "Em"GBe | "F#m"Acf "G"Bdg | "A"cAd "A7"d2c | "D"d3- d2 |]

